X: 2076
Q: "Strathspey."
M: C
L: 1/16
K: C
(EG3) (G2AB) vc3vduc3uB | vA3vG (A2Bc) vd3veud3uD |\
(EG3) (G2AB) c3de3d | (cB)AG uc3uE (D4C2) :|
|: ug2 |\
(efg2) uc3ug (ag)fe ug3ue | (fa3) ud3uf (ag)fg ua3uf |\
(efg2) d3e c3de3d | (cB)AG uc3uE (D4C2) :|


